X:1
T:Amor quando m'invia
T:Anonymous
T:Source : Musica divina---Anversa---P.Phalesio & G.Bellero---1583. Editor: André Vierendeels (06/12/13).
T:Amor quando m'invia
C:Anonymous
%%score [ 1 2 [ 3 4 ] ]
L:1/8
Q:1/4=120
M:2/2
K:C
V:1 treble nm="Canto" snm="C"
V:2 treble nm="Alto" snm="A"
V:3 treble-8 nm="Tenor 1" snm="T 1"
V:4 treble-8 nm="Tenor 2" snm="T 2"
V:1
 A8 | B6 B2 | c2 c2 c4 | d4 c4 | B4 B4 | ^c4 e4 | f6 d2 | e2 e2 d4 | e2 e2 c4- | c2 c2 B2 c2 | %10
w: A-|mor quan-|do m'in- vi-|a, a-|mor, a-|mor, a-|mor quan-|do m'in- vi-|'a- mi- rar|_ la mi- a|
 d4 ^c4 |"^-natural" c8 | B4 A4- | A2 GF G4 | A8 | A2 d2 f2 e2 | d2 c2 B4 | A2 A2 c2 c2 | %18
w: don- na'el|mio|do- lo-||re,|vol la mia for-|te ri- a,|la mia for- te|
 c4 c2 e2- | ee e2 d2 d2- | d2 ^c2 d2 d2- | dd c2 _B2 B2 | A4 A4- | A4 z2 c2- |"^b" cc c2 B2 G2 | %25
w: ri- a ch'el-|* la si par- te|_ vi- a, ch'el-|* la si par- te|vi- a,|_ se-|* co port' il mio|
 d8 | c8 | B4 c4- | c4 c4 | c4 _B4 | A2 c2 _B4 | A2 d2 d2 c2 | d8 | d2 c2 f2 d2 | d4 d4 | %35
w: co-|re:|ma poi|_ ch'el-|la ri-|tor- * *|na, e'a me si|vol-|ta, e'a me si|vol- ta|
 z2 d2 d2 c2 | d4 z2 d2 | d2 c2 d4 | _B4 A2 d2 | c2 d4 c2 | d4 z2 d2 | d2 c2 d4 | z2 d2 d2 ^c2 | %43
w: ri- tor- n'in|me, ri-|tor- n'in me|con lei l'a-|ni- ma tol-|ta, ri-|tor- n'in me,|ri- tor- n'in|
 d4 _B4 | A2 d2 ^c2 d2- | d2 ^cB c4 | d8 |] %47
w: me con|lei l'a- ni- ma|_ _ _ tor-|ta.|
V:2
 ^F8 | G8- | G4 A4- | A2 A2 A4- |"^#" A2 ^GF G4 | A4 A4 | A6 G2 | G2 G2 G4 | G2 G2 E2 G2 | %9
w: mor||* do|* m'in- vi-|* * * a,|a- mor|quan- do|m'in- vi- 'a|mi- rar la mi-|
 A2 G2 G2 C2 | F2 G2 A4 | A8 | G4 C4 | D8 | E8 | F4 z4 | z2 A2 A2 G2 | A6 A2 | G4 A2 c2- | %19
w: a don- na, la|mia don- na'el|mio|do- lo-|re,||vol|la mia for-|te ri-|a ch'el la|
 cc c2 _B2 B2 | A4 A2 A2- | AA A2 F2 G2 | E4 F4 | z2 A4 A2 | G4 G2 _B2 | A4 A2 A2- | AA A2 G2 G2 | %27
w: _ si par- te vi-|a, ch'el- la|* si par- te vi-|a, a,|co por-|t'il mio co-|re, se- co|* mio por- t'il mio|
 G4 A4 | G8 | A4 F4 | F2 A2 G4 | F2 F2 E2 c2 | _B2 B2 A4 | B2 A2 c2 B2 | A4 B2 A2 | A2 G2 A4 | %36
w: co- re:||ma poi|ch'el- la ri-|tor- na, e'a me|si vol- ta,|e'a me si vol-|ta ri- tor-|n'in me, ri-|
 z2 A2 A2 G2 | A8 | G4 ^F2 A2 | A2 G2 A4 | A2 A2 A2 G2 | A4 z2 A2 | A2 G2 A4- | A4 G4 | %44
w: tor- n'in me|con|lei l'a- ni-|ma tol- ta,|ri- tor- n'in me,|ri- tor-|n'in me con|_ lei|
 F2 A2 A2 G2 | A8 | A8 |] %47
w: l'a- ni- ma tol-|ta.|e-|
V:3
 d8 | d6 d2 | e2 e2 f4- | f4 e4 | z4 e4 | A4 ^c4 | d6 B2 | B2 c4 B2 | c2 G2 A2 e2 | e2 e2 d2 f2- | %10
w: mor|quan- do|m'in- vi- a,|* a-|mor,|a- mor|quan- do|m'in- vi- 'a|mi- rar la mi-|a don- na'el *|
 fe d2 e4 | f8 | d2 e4 f2- | f2 e2 d4 | c2 B2 ^c4 | d2 d2 d2 c2 | d2 A2 e4 | A2 d2 c2 f2- | %18
w: * * * mio|do-|lo- re, *|||vol la mia for-|te ri- a,|mia for- te ri-|
 f2 e2 f2 g2- | gg a2 f2 g2 | e4 f2 f2- | ff e2 d2 d2- | d2 ^c2 d2 f2- | ff f2 e2 e2 | e4 d4 | %25
w: _ a, ch'el- la|* si par- te vi-|a, ch'el- la|* si par- te vi-|_ a, ch'el- la|* si par- te vi-|a, se-|
 z2 f3 f f2 | e2 e2 e4 | d4 z4 | e8 | e4 d4 | c2 f2 d4- | d4 A2 a2 | f2 g4 ^f2 | g2 e2 a2 g2- | %34
w: co por- t'il|mio co- re:|ma|poi|ch'el- la|ri- tor- na,|* e'a me|si vol- ta,|e'a me si vol-|
 g2 ^f2 g2 f2 | e2 d2 e4 | z2 f2 e2 d2 | e4 f4 |"^-natural" d6 f2 | e2 d2 e4 | d2 f2 e2 d2 | %41
w: _ ta ri- tor-|n'in me, ri-|tor- n'in me|con lei|l'a- ni-|ma tol- ta,|ri- tor- n'in me,|
 e4 z2 f2 | e2 d2 e4 | f4 d4- | d2 f2 e2 d2 | e8 | d8 |] %47
w: ri- tor-|n'in me con|lei l'a-|_ ni- ma tol-|ta.|A-|
V:4
 D8 | G6 G2 | C2 C2 F4 | D4 A4 | E8 | z4 A4 | D6 G2 | E2 C2 G4 | C4 z2 c2 | A2 c2 G2 A2 | _B4 A4 | %11
w: mor|quan- do|m'in- vi- a,|a- mor,|a-|mor|quan- do|m'in- vi- a|a mi-|rar la mia don-|na'il *|
 F8 | G4 A4 |"^b" B8 | A8 | D4 z4 | z4 z2 E2 | F2 D2 A2 F2 | c4 F2 c2- | cc A2 _B2 G2 | A4 D2 d2- | %21
w: do-|lo- *|re,||vol|la|mia for- te ri-|a, ch'el- la|* si par- te vi-|a, ch'el- la|
 dd A2 _B2 G2 | A4 D2 d2- | dd d2 A2 A2 | c4 G4 | z2 d3 d d2 | A2 A2 c4 | G4 z4 | c8 | A4 _B4 | %30
w: * si par- te vi-|a, ch'el la|_ si par- te vi-|a, se-|co por- t'il|mio co- re:|ma|poi|ch'el- la|
 F2 F2 G4 | D4 z2 A2 | _B2 G2 d4 | G2 A2 F2 G2 | D4 G2 d2 | c2 _B2 A4 | z2 d2 c2 _B2 | A4 D4 | %38
w: ri- tor- na,|e'a me|si vol- ta,|e'a me si vol-|ta ri- tor-|n'in me, ri-|tor- n'in me|con lei|
 G4 D4 |"^b" A2 B2 A4 | D2 d2 c2 _B2 | A4 z2 d2 | c2 _B2 A4 | D4 G4 |"^b" D4 A2 B2 | A8 | D8 |] %47
w: l'a- ni-|ma tol- ta,|ri- tor- n'in me,|ri- tor-|n'in me ri-|_ _||||

